svgs/regular/hand-fingers-crossed.svg

<svg xmlns="http://www.w3.org/2000/svg" viewBox="0 0 512 512"><!--! Font Awesome Pro 6.0.0-alpha3 by @fontawesome - https://fontawesome.com License - https://fontawesome.com/license (Commercial License) --><path d="M412 160c-8.322 0-16.3 1.514-23.67 4.268C367.1 142.8 341 144 340 144c-10.98 0-23.57 4.461-23.8 4.547l21.93-48.56c4.244-9.414 6.252-19.28 6.252-28.1c0-20.09-15.82-71.01-70.77-71.01c-26.71 0-52.68 15.25-64.61 41.72L148.6 175.4L105.6 80.27c-1.366-3.038-2.012-6.223-2.012-9.36c0-6.322 4.956-22.87 22.83-22.87c8.714 0 17 4.992 20.81 13.41L156.1 81.07l23.73-52.54c.3594-.7988 .9121-1.463 1.291-2.25C167.5 9.645 147.2 .0928 126.1 .0928c-54.75 0-70.45 50.54-70.45 70.91c0 9.718 2.008 19.59 6.25 29L120.6 231.1c-8.428 1.311-16.34 2.555-17.27 2.76c-32.05 7.023-55.32 36.51-55.32 70.11v80c0 22.06 10.4 43.32 27.83 56.86l45.95 35.74c29.35 22.83 65.98 35.41 103.2 35.41l78.81 .0352c97.19 0 176.3-79.06 176.3-176.3V228.3C480 210.5 465.2 160 412 160zM320 212.3c0-11.17 8.982-20.25 20-20.25c10.1 0 19.98 9.071 19.98 20.24l.0195 55.51c0 11.17-8.98 20.25-20 20.25c-11.02 0-20-9.078-20-20.25V212.3zM252.8 61.45c3.805-8.465 12.2-13.44 20.83-13.44c17.75 0 22.81 16.32 22.81 22.89c0 3.133-.6466 6.314-2.012 9.346L232.7 216.8C229.8 216.4 226.9 216 223.9 216c0 0 .002 0 0 0c-4.475 0-8.967 .4199-13.38 1.254L181.1 221.8L252.8 61.45zM303.8 464l-78.81-.0352c-26.56 0-52.72-8.984-73.69-25.3L105.3 402.9c-5.812-4.516-9.281-11.61-9.281-18.95v-80c0-11.23 7.969-21.11 17.59-23.22l105.3-16.23C220.6 264.2 222.3 264 223.9 264c11.91 0 24.09 9.521 24.09 24.06c0 11.04-7.513 20.95-17.17 23.09L172.8 319c-12.03 1.633-20.78 11.92-20.78 23.75c0 20.21 18.82 24.08 23.7 24.08c2.645 0 64.61-8.619 65.54-8.826c23.55-5.227 41.51-22.23 49.73-43.64c12.34 13.18 29.61 21.64 49.03 21.64c8.326 0 16.31-1.51 23.69-4.27c12.33 12.51 29.44 20.27 48.31 20.27c.1992 0 10.08-.4453 18.65-2.92C423.9 413.5 369.9 464 303.8 464zM432 283.8c0 11.17-8.98 20.25-20 20.25c-11.02 0-20-9.078-20-20.25v-55.5c0-11.17 8.982-20.25 20-20.25C423 208 432 217.1 432 228.3L432 283.8z"/></svg>

<svg xmlns="http://www.w3.org/2000/svg" viewBox="0 0 512 512"><!-- Font Awesome Pro 6.0.0-alpha2 by @fontawesome - https://fontawesome.com License - https://fontawesome.com/license (Commercial License) --><path d="M411.98 160C403.658 160 395.682 161.514 388.307 164.268C367.087 142.752 340.987 144 339.98 144C329.004 144 316.406 148.461 316.178 148.547L338.105 99.984C342.349 90.571 344.357 80.704 344.357 70.985C344.357 50.893 328.532 -0.021 273.588 -0.021C246.881 -0.021 220.911 15.231 208.98 41.703L148.584 175.404L105.605 80.266C104.24 77.228 103.593 74.043 103.593 70.906C103.593 64.584 108.549 48.041 126.419 48.041C135.133 48.041 143.422 53.033 147.23 61.453L156.09 81.068L179.824 28.531C180.184 27.732 180.736 27.068 181.115 26.281C167.526 9.645 147.151 0.093 126.055 0.093C71.303 0.093 55.605 50.633 55.605 70.999C55.605 80.718 57.613 90.585 61.855 100L120.592 231.125C112.164 232.436 104.254 233.68 103.318 233.885C71.264 240.908 48 270.393 48 303.99V383.99C48 406.053 58.404 427.309 75.832 440.848L121.783 476.584C151.131 499.414 187.768 511.99 224.938 511.99L303.75 512.025C400.938 512.025 480 432.963 480 335.775V228.275C480 210.505 465.19 160 411.98 160ZM320 212.256C320 201.084 328.982 192.006 340 192.006C350.996 192.006 359.98 201.077 359.98 212.25V256H360V267.756C360 278.928 351.02 288.006 340 288.006C328.982 288.006 320 278.928 320 267.756V212.256ZM252.73 61.453C256.535 52.988 264.928 48.011 273.557 48.011C291.305 48.011 296.367 64.328 296.367 70.904C296.367 74.037 295.721 77.217 294.355 80.25L232.682 216.822C229.789 216.439 226.906 216 223.928 216C223.928 216 223.926 216 223.924 216C219.449 216 214.959 216.42 210.551 217.254L199.996 218.881L186.916 220.898L181.088 221.797L252.73 61.453ZM303.75 464.025L224.938 463.99C198.375 463.99 172.219 455.006 151.25 438.693L105.281 402.943C99.469 398.428 96 391.334 96 383.99V303.99C96 292.756 103.969 282.881 113.594 280.771L218.875 264.537C220.568 264.174 222.258 264 223.924 264C235.834 264 248.011 273.521 248.011 288.058C248.011 299.096 240.498 309.004 230.844 311.146L172.781 319.006C160.748 320.639 151.999 330.927 151.999 342.753C151.999 362.965 170.818 366.832 175.701 366.832C178.346 366.832 240.311 358.213 241.242 358.006C264.791 352.779 282.75 335.771 290.975 314.367C303.316 327.551 320.582 336.006 340 336.006C348.326 336.006 356.307 334.496 363.686 331.736C376.018 344.246 393.123 352.006 412 352.006C412.199 352.006 422.084 351.561 430.654 349.086C423.887 413.482 369.91 464.025 303.75 464.025ZM432 283.756C432 294.928 423.02 304.006 412 304.006C400.982 304.006 392 294.928 392 283.756V228.256C392 217.084 400.982 208.006 412 208.006C422.996 208.006 431.98 217.077 431.98 228.25V256H432V283.756Z"/></svg>
